!!!OTL: The Gay Spanish Maid
!!!ONM: 35.
**kern
*clefG2
*k[b-]
*F:
*M4/4
*MM120
{8c
8c
=1
4f
8c
8f
4a
8f
8a
=2
4g
8a
8g
4f}
{8a
8b-
=3
4cc
8dd
8cc
4g
8a
8b
=4
2.cc}
{(8a
8b-)
=5
4cc
8dd
8cc
4f
8g
8a
=6
(8d
8g)
8e
8d
4c}
{8c
8c
=7
4f
8g
8a
4c
8e
8g
=8
2.f}
==
*-
!!!CNT: Folksongs of Maritime Canada
!!!MRD: 1928///-1932///
!!!OCL: Helen Creighton
!!!YOR: Songs and Ballads from Nova Scotia
!!!PPR: J.M. Dent & Sons, Limited
!!!PPP: Toronto, Canada
!!!PDT: 1932///
!!!reprint: Dover Publications, 1992: ISBN 0-486-21703-5
!!!ENC1: Craig Stuart Sapp (music and bibliographic data)                       
!!!ENC2: Marcus Pearce (phrase markings and key designations)                   
!!!ENC3: Darrell Conklin (phrase markings and key designations)   
!!!END: 2002/04/10/
!!!EEV: 2004/06/05
!!!MPN: Mrs. Grantmyre
!!!PPG: 71
!!!EFL: 35/152
!!!ARE: Canada; Nova Scotia
!!!verses: 7
!!!VTS: 316981069
